X: 3601
T: Bill Flynn's
R: jig
M: 6/8
K: Gmajor
|:A|"G"BGG dBd|"C"ece "D"d2c|"Em"BGE GAB|"Am" AGE "D"D2c|
"G"BGG dBd|"A"ed^c "D"def|"G"gdB "Am" ABc|"G" BGF G2:|
|:A|"G"Bdg "D7"fdc|"G"BdB "D7"cBA|"G"Bcd "C" efg|"D"afe d2f|
"G" ged Bcd|"Am" edc "D"ABc|"G"BAB "C"cBc|"D" dAF "G"G2:|

